apps/site/public/icons/companies/about/kleiner-perkins.svg

<svg xmlns="http://www.w3.org/2000/svg" fill="none" viewBox="0 0 245 24" height="24" width="245">
<path fill="white" d="M46.3679 6.49245H43.6918L37.6916 11.5349V6.49245H35.5225V17.5351H37.6916V13.9575L39.9452 12.1546L44.6214 17.5351H47.4384L41.4945 10.718L46.3679 6.49245Z"></path>
<path fill="white" d="M53.9445 6.49245H51.7754V17.5351H61.1279V15.5914H53.9445V6.49245Z"></path>
<path fill="white" d="M67.3812 12.718H71.8884V10.8306H67.3812V8.40801H74.8181V6.49245H65.2402V17.5351H75.2688V15.5914H67.3812V12.718Z"></path>
<path fill="white" d="M82.8478 6.49245H80.6787V17.5351H82.8478V6.49245Z"></path>
<path fill="white" d="M97.889 14.0139L91.2691 6.49245H89.3535V17.5351H91.5226V10.0137H91.5508L98.1426 17.5351H100.058V6.49245H97.889V14.0139Z"></path>
<path fill="white" d="M108.735 12.718H113.242V10.8306H108.735V8.40802H116.172V6.49245H106.594V17.5351H116.622V15.5914H108.735V12.718Z"></path>
<path fill="white" d="M132.961 9.9574C132.961 9.1123 132.623 8.32354 132.032 7.73197C131.299 6.99954 130.257 6.52065 128.51 6.52065H122.031V17.5633H124.2V13.4505H128.2L130.679 17.5633H133.158L130.398 13.1406C131.891 12.6336 132.961 11.4504 132.961 9.9574ZM128.82 11.5068H124.172V8.40805H128.51C129.243 8.40805 129.919 8.46439 130.426 9.02779C130.651 9.28132 130.82 9.61936 130.82 9.9574C130.82 10.8025 129.919 11.5068 128.82 11.5068Z"></path>
<path fill="white" d="M150.738 6.49245H144.202V17.5351H146.371V13.4223H150.709C152.259 13.4223 153.357 13.0843 154.203 12.2391C154.794 11.6476 155.16 10.9152 155.16 9.95737C155.16 9.05593 154.822 8.26717 154.231 7.6756C153.301 6.74598 152.09 6.49245 150.738 6.49245ZM152.569 10.9433C152.146 11.3377 151.611 11.5067 150.709 11.5067H146.371V8.40802H150.766C151.301 8.40802 152.09 8.43619 152.625 8.99959C152.85 9.25312 152.991 9.59116 152.991 9.95737C152.991 10.3236 152.822 10.6898 152.569 10.9433Z"></path>
<path fill="white" d="M161.892 12.7462H166.427V10.8306H161.892V8.43618H169.357V6.49245H159.751V17.5351H169.808V15.6195H161.892V12.7462Z"></path>
<path fill="white" d="M186.147 9.95738C186.147 9.11228 185.809 8.32352 185.217 7.73195C184.485 6.99953 183.442 6.52064 181.696 6.52064H175.217V17.5633H177.386V13.4505H181.358L183.837 17.5633H186.316L183.555 13.1406C185.048 12.6335 186.147 11.4786 186.147 9.95738ZM182.006 11.5349H177.358V8.4362H181.696C182.428 8.4362 183.104 8.49254 183.611 9.05594C183.837 9.30947 184.006 9.64752 184.006 9.98556C183.978 10.8025 183.076 11.5349 182.006 11.5349Z"></path>
<path fill="white" d="M202.569 6.49245H199.893L193.893 11.5631V6.49245H191.724V17.5351H193.893V13.9575L196.146 12.1828L200.823 17.5351H203.611L197.696 10.7461L202.569 6.49245Z"></path>
<path fill="white" d="M210.148 6.49245H207.979V17.5351H210.148V6.49245Z"></path>
<path fill="white" d="M225.19 14.0139H225.162L218.57 6.49245H216.654V17.5351H218.823V10.0137L225.443 17.5351H227.331V6.49245H225.19V14.0139Z"></path>
<path fill="white" d="M239.163 10.6335C237.416 10.5208 235.726 10.4644 235.726 9.42214C235.726 8.37985 236.881 8.01364 238.261 8.01364C240.431 8.01364 241.98 8.71789 242.628 9.25312L243.952 7.76011C242.994 7.05586 240.853 6.12624 238.346 6.12624C236.177 6.12624 233.557 6.91501 233.557 9.61933C233.557 12.3518 236.543 12.549 239.163 12.7462C241.248 12.9152 242.459 13.2251 242.459 14.4646C242.459 15.5632 241.163 16.0703 239.473 16.0703C236.825 16.0703 235.163 14.859 234.205 14.0984L232.909 15.5914C234.261 16.7182 236.29 17.9577 239.445 17.9577C242.262 17.9577 244.628 16.9154 244.628 14.1829C244.628 10.9997 241.276 10.7743 239.163 10.6335Z"></path>
<path fill="white" d="M2.84443 0.886597C1.80213 0.886597 0.957031 1.7317 0.957031 2.77399V12.1546L12.2251 0.886597H2.84443Z"></path>
<path fill="white" d="M0.984375 21.5353C0.984375 22.5776 1.82948 23.4227 2.87177 23.4227H12.2524L0.984375 12.1546V21.5353Z"></path>
<path fill="white" d="M12.2529 14.0139V23.3945L23.521 12.1265H14.1403C13.0699 12.1546 12.2529 12.9997 12.2529 14.0139Z"></path>
<path fill="white" d="M21.6336 0.886604H12.2529L23.521 12.1546V2.774C23.521 1.73171 22.6759 0.886604 21.6336 0.886604Z"></path>
</svg>

<svg xmlns="http://www.w3.org/2000/svg" width="245" height="24" fill="none" viewBox="0 0 245 24"><path fill="#fff" d="M46.368 6.492h-2.676l-6 5.043V6.492h-2.17v11.043h2.17v-3.578l2.253-1.802 4.676 5.38h2.817l-5.943-6.817zm7.577 0h-2.17v11.043h9.353v-1.944h-7.184zm13.436 6.226h4.507v-1.887h-4.507V8.408h7.437V6.492H65.24v11.043h10.03v-1.944h-7.89zm15.467-6.226h-2.17v11.043h2.17zm15.041 7.522-6.62-7.522h-1.916v11.043h2.17v-7.521h.028l6.592 7.521h1.915V6.492h-2.169zm10.846-1.296h4.507v-1.887h-4.507V8.408h7.437V6.492h-9.578v11.043h10.028v-1.944h-7.887zm24.226-2.761c0-.845-.338-1.633-.929-2.225-.733-.732-1.775-1.211-3.522-1.211h-6.479v11.042h2.169v-4.112h4l2.479 4.112h2.479l-2.76-4.422c1.493-.507 2.563-1.69 2.563-3.184m-4.141 1.55h-4.648V8.408h4.338c.733 0 1.409.056 1.916.62.225.253.394.591.394.93 0 .845-.901 1.549-2 1.549m21.918-5.015h-6.536v11.043h2.169v-4.113h4.338c1.55 0 2.648-.338 3.494-1.183.591-.591.957-1.324.957-2.282a3.17 3.17 0 0 0-.929-2.281c-.93-.93-2.141-1.184-3.493-1.184m1.831 4.451c-.423.395-.958.564-1.86.564h-4.338V8.408h4.395c.535 0 1.324.028 1.859.592.225.253.366.591.366.957 0 .367-.169.733-.422.986m9.323 1.803h4.535v-1.915h-4.535V8.436h7.465V6.492h-9.606v11.043h10.057V15.62h-7.916zm24.255-2.789c0-.845-.338-1.633-.93-2.225-.732-.732-1.775-1.211-3.521-1.211h-6.479v11.042h2.169v-4.112h3.972l2.479 4.112h2.479l-2.761-4.422c1.493-.508 2.592-1.662 2.592-3.184m-4.141 1.578h-4.648V8.436h4.338c.732 0 1.408.057 1.915.62.226.253.395.592.395.93-.028.816-.93 1.549-2 1.549m20.563-5.043h-2.676l-6 5.071v-5.07h-2.169v11.042h2.169v-3.578l2.253-1.774 4.677 5.352h2.788l-5.915-6.789zm7.579 0h-2.169v11.043h2.169zm15.042 7.522h-.028l-6.592-7.522h-1.916v11.043h2.169v-7.521l6.62 7.521h1.888V6.492h-2.141zm13.973-3.38c-1.747-.113-3.437-.17-3.437-1.212s1.155-1.408 2.535-1.408c2.17 0 3.719.704 4.367 1.24l1.324-1.494c-.958-.704-3.099-1.634-5.606-1.634-2.169 0-4.789.789-4.789 3.493 0 2.733 2.986 2.93 5.606 3.127 2.085.17 3.296.48 3.296 1.719 0 1.098-1.296 1.605-2.986 1.605-2.648 0-4.31-1.211-5.268-1.972l-1.296 1.493c1.352 1.127 3.381 2.367 6.536 2.367 2.817 0 5.183-1.043 5.183-3.775 0-3.183-3.352-3.409-5.465-3.55M2.844.887A1.89 1.89 0 0 0 .957 2.774v9.38L12.225.888zM.984 21.535c0 1.043.845 1.888 1.888 1.888h9.38L.984 12.155zm11.269-7.521v9.38L23.52 12.128h-9.38c-1.071.028-1.888.873-1.888 1.887"/><path fill="#fff" d="M21.634.887h-9.381L23.52 12.155V2.774A1.89 1.89 0 0 0 21.634.887"/></svg>
